icons/star-filled.svg

<svg xmlns="http://www.w3.org/2000/svg" width="24" height="24" viewBox="0 0 24 24">
    <path fill="#3A3A47" fill-rule="evenodd" d="M12.003 2c.96 0 1.589.406 1.888 1.218l1.367 4.465h4.911c.97.07 1.56.51 1.767 1.317.207.807-.089 1.56-.888 2.26l-3.724 2.77 1.561 5.366c.307.868.092 1.586-.645 2.153-.737.568-1.548.593-2.431.076l-3.806-2.665-3.912 2.723c-1.016.463-1.84.419-2.472-.134-.632-.552-.833-1.248-.603-2.087l1.55-5.432-3.608-2.77c-.787-.695-1.09-1.448-.906-2.26.183-.811.757-1.25 1.722-1.317h4.879l1.396-4.475C10.39 2.403 11.043 2 12.003 2z"/>
</svg>

<svg width="24" height="24" viewBox="0 0 24 24" fill="none" xmlns="http://www.w3.org/2000/svg">
<path fill-rule="evenodd" clip-rule="evenodd" d="M12.003 2C12.963 2 13.592 2.406 13.891 3.218L15.258 7.683H20.169C21.139 7.753 21.729 8.193 21.936 9C22.143 9.807 21.847 10.56 21.048 11.26L17.324 14.03L18.885 19.396C19.192 20.264 18.977 20.982 18.24 21.549C17.503 22.117 16.692 22.142 15.809 21.625L12.003 18.96L8.091 21.683C7.075 22.146 6.251 22.102 5.619 21.549C4.987 20.997 4.786 20.301 5.016 19.462L6.566 14.03L2.958 11.26C2.171 10.565 1.868 9.812 2.052 9C2.235 8.189 2.809 7.75 3.774 7.683H8.653L10.049 3.208C10.39 2.403 11.043 2 12.003 2Z" fill="#3A3A47"/>
</svg>
